( Made using CamBam - http://www.cambam.co.uk )
( front panel 8/2/2015 3:24:47 PM )
( T2 : 2.0 )
G21 G90 G64 G40
G0 Z3.0
( T2 : 2.0 )
T2 M6
( Pocket1 )
G17
M3 S1000
G0 X4.9486 Y8.9955
G0 Z1.0
G1 F30.0 Z-0.7
G1 F70.0 Y8.9956
G3 X4.6986 Y9.2455 I-0.25 J0.0
G1 X4.6984
G3 X4.4486 Y8.9956 I0.0 J-0.2499
G2 Y8.9953 I-1.4 J-0.0001
G3 X4.6984 Y8.7455 I0.2498 J0.0
G2 X4.6987 I0.0 J-1.4
G3 X4.9486 Y8.9954 I0.0 J0.2499
G1 Y8.9955
G1 F30.0 X5.3486
G3 F70.0 X4.6986 Y9.6455 I-0.65 J0.0
G1 X4.6984
G3 X4.0486 Y8.9956 I0.0 J-0.6499
G2 Y8.9954 I-1.0 J-0.0001
G3 X4.6984 Y8.3455 I0.6498 J-0.0001
G2 X4.6986 I0.0 J-1.0
G3 X5.3486 Y8.9954 I0.0001 J0.6499
G1 Y8.9955
G1 F30.0 X4.9486
G1 Z-1.4
G1 F70.0 Y8.9956
G3 X4.6986 Y9.2455 I-0.25 J0.0
G1 X4.6984
G3 X4.4486 Y8.9956 I0.0 J-0.2499
G2 Y8.9953 I-1.4 J-0.0001
G3 X4.6984 Y8.7455 I0.2498 J0.0
G2 X4.6987 I0.0 J-1.4
G3 X4.9486 Y8.9954 I0.0 J0.2499
G1 Y8.9955
G1 F30.0 X5.3486
G3 F70.0 X4.6986 Y9.6455 I-0.65 J0.0
G1 X4.6984
G3 X4.0486 Y8.9956 I0.0 J-0.6499
G2 Y8.9954 I-1.0 J-0.0001
G3 X4.6984 Y8.3455 I0.6498 J-0.0001
G2 X4.6986 I0.0 J-1.0
G3 X5.3486 Y8.9954 I0.0001 J0.6499
G1 Y8.9955
( Pocket2 )
S1000
G0 Z3.0
G0 X21.9985 Y9.7953
G0 Z1.0
G1 F30.0 Z-0.7
G1 F70.0 Y9.9954
G1 X14.3983
G1 Y9.7953
G1 X21.9985
G1 F30.0 Y9.3953
G1 F70.0 X22.3985
G1 Y10.3954
G1 X13.9983
G1 Y9.3953
G1 X21.9985
G1 F30.0 Y8.5953
G1 F70.0 X23.1985
G1 Y11.1954
G1 X13.1983
G1 Y8.5953
G1 X21.9985
G1 F30.0 Y7.7953
G1 F70.0 X23.9985
G1 Y11.9954
G1 X12.3983
G1 Y7.7953
G1 X21.9985
G0 Z3.0
G0 Y9.7953
G0 Z0.3
G1 F30.0 Z-1.4
G1 F70.0 Y9.9954
G1 X14.3983
G1 Y9.7953
G1 X21.9985
G1 F30.0 Y9.3953
G1 F70.0 X22.3985
G1 Y10.3954
G1 X13.9983
G1 Y9.3953
G1 X21.9985
G1 F30.0 Y8.5953
G1 F70.0 X23.1985
G1 Y11.1954
G1 X13.1983
G1 Y8.5953
G1 X21.9985
G1 F30.0 Y7.7953
G1 F70.0 X23.9985
G1 Y11.9954
G1 X12.3983
G1 Y7.7953
G1 X21.9985
G0 Z3.0
M5
M30
