( Made using CamBam - http://www.cambam.co.uk )
( back panel 8/8/2015 1:37:13 PM )
( T12 : 2.0 )
G21 G90 G64 G40
G0 Z3.0
( T12 : 2.0 )
T12 M6
( Drill1 )
G17
M3 S1000
G0 X3.0 Y16.0001
G98
G83 X3.0 Y16.0001 Z-12.0 Q3.0 R3.0 F50.0
G83 Y3.0 Z-12.0
G83 X41.9998 Z-12.0
G83 X52.1536 Z-12.0
G83 Y16.0001 Z-12.0
G83 X41.9998 Z-12.0
G83 X91.1534 Z-12.0
G83 X101.4248 Z-12.0
G83 Y3.0 Z-12.0
G83 X91.1534 Z-12.0
G83 X140.4248 Z-12.0
G83 Y16.0001 Z-12.0
G80
G0 Z3.0
M5
M30
