( Made using CamBam - http://www.cambam.co.uk )
( back panel 8/8/2015 1:37:06 PM )
( T3 : 3.0 )
G21 G90 G64 G40
G0 Z3.0
( T3 : 3.0 )
T3 M6
( Pocket1 )
G17
M3 S1000
G0 X16.5644 Y9.2151
G0 Z1.0
G1 F50.0 Z-2.0
G1 F200.0 Y9.6706
G1 X7.8
G1 Y9.2151
G1 X16.5644
G1 F50.0 Y8.6151
G1 F200.0 X17.1644
G1 Y10.2706
G1 X7.2
G1 Y8.6151
G1 X16.5644
G1 F50.0 Y7.4151
G1 F200.0 X18.3644
G1 Y11.4706
G1 X6.0
G1 Y7.4151
G1 X16.5644
G1 F50.0 Y9.2151
G1 Z-4.0
G1 F200.0 Y9.6706
G1 X7.8
G1 Y9.2151
G1 X16.5644
G1 F50.0 Y8.6151
G1 F200.0 X17.1644
G1 Y10.2706
G1 X7.2
G1 Y8.6151
G1 X16.5644
G1 F50.0 Y7.4151
G1 F200.0 X18.3644
G1 Y11.4706
G1 X6.0
G1 Y7.4151
G1 X16.5644
G1 F50.0 Y9.2151
G1 Z-6.0
G1 F200.0 Y9.6706
G1 X7.8
G1 Y9.2151
G1 X16.5644
G1 F50.0 Y8.6151
G1 F200.0 X17.1644
G1 Y10.2706
G1 X7.2
G1 Y8.6151
G1 X16.5644
G1 F50.0 Y7.4151
G1 F200.0 X18.3644
G1 Y11.4706
G1 X6.0
G1 Y7.4151
G1 X16.5644
G1 F50.0 Y9.2151
G1 Z-8.0
G1 F200.0 Y9.6706
G1 X7.8
G1 Y9.2151
G1 X16.5644
G1 F50.0 Y8.6151
G1 F200.0 X17.1644
G1 Y10.2706
G1 X7.2
G1 Y8.6151
G1 X16.5644
G1 F50.0 Y7.4151
G1 F200.0 X18.3644
G1 Y11.4706
G1 X6.0
G1 Y7.4151
G1 X16.5644
G0 Z3.0
G0 X56.9536 Y9.2151
G0 Z1.0
G1 F50.0 Z-2.0
G1 F200.0 X65.718
G1 Y9.6706
G1 X56.9536
G1 Y9.2151
G1 F50.0 X56.3536
G1 F200.0 Y8.6151
G1 X66.318
G1 Y10.2706
G1 X56.3536
G1 Y9.2151
G1 F50.0 X55.1536
G1 F200.0 Y7.4151
G1 X67.518
G1 Y11.4706
G1 X55.1536
G1 Y9.2151
G1 F50.0 X56.9536
G1 Z-4.0
G1 F200.0 X65.718
G1 Y9.6706
G1 X56.9536
G1 Y9.2151
G1 F50.0 X56.3536
G1 F200.0 Y8.6151
G1 X66.318
G1 Y10.2706
G1 X56.3536
G1 Y9.2151
G1 F50.0 X55.1536
G1 F200.0 Y7.4151
G1 X67.518
G1 Y11.4706
G1 X55.1536
G1 Y9.2151
G1 F50.0 X56.9536
G1 Z-6.0
G1 F200.0 X65.718
G1 Y9.6706
G1 X56.9536
G1 Y9.2151
G1 F50.0 X56.3536
G1 F200.0 Y8.6151
G1 X66.318
G1 Y10.2706
G1 X56.3536
G1 Y9.2151
G1 F50.0 X55.1536
G1 F200.0 Y7.4151
G1 X67.518
G1 Y11.4706
G1 X55.1536
G1 Y9.2151
G1 F50.0 X56.9536
G1 Z-8.0
G1 F200.0 X65.718
G1 Y9.6706
G1 X56.9536
G1 Y9.2151
G1 F50.0 X56.3536
G1 F200.0 Y8.6151
G1 X66.318
G1 Y10.2706
G1 X56.3536
G1 Y9.2151
G1 F50.0 X55.1536
G1 F200.0 Y7.4151
G1 X67.518
G1 Y11.4706
G1 X55.1536
G1 Y9.2151
G0 Z3.0
G0 X106.2248
G0 Z1.0
G1 F50.0 Z-2.0
G1 F200.0 X114.9894
G1 Y9.6706
G1 X106.2248
G1 Y9.2151
G1 F50.0 X105.6248
G1 F200.0 Y8.6151
G1 X115.5894
G1 Y10.2706
G1 X105.6248
G1 Y9.2151
G1 F50.0 X104.4248
G1 F200.0 Y7.4151
G1 X116.7894
G1 Y11.4706
G1 X104.4248
G1 Y9.2151
G1 F50.0 X106.2248
G1 Z-4.0
G1 F200.0 X114.9894
G1 Y9.6706
G1 X106.2248
G1 Y9.2151
G1 F50.0 X105.6248
G1 F200.0 Y8.6151
G1 X115.5894
G1 Y10.2706
G1 X105.6248
G1 Y9.2151
G1 F50.0 X104.4248
G1 F200.0 Y7.4151
G1 X116.7894
G1 Y11.4706
G1 X104.4248
G1 Y9.2151
G1 F50.0 X106.2248
G1 Z-6.0
G1 F200.0 X114.9894
G1 Y9.6706
G1 X106.2248
G1 Y9.2151
G1 F50.0 X105.6248
G1 F200.0 Y8.6151
G1 X115.5894
G1 Y10.2706
G1 X105.6248
G1 Y9.2151
G1 F50.0 X104.4248
G1 F200.0 Y7.4151
G1 X116.7894
G1 Y11.4706
G1 X104.4248
G1 Y9.2151
G1 F50.0 X106.2248
G1 Z-8.0
G1 F200.0 X114.9894
G1 Y9.6706
G1 X106.2248
G1 Y9.2151
G1 F50.0 X105.6248
G1 F200.0 Y8.6151
G1 X115.5894
G1 Y10.2706
G1 X105.6248
G1 Y9.2151
G1 F50.0 X104.4248
G1 F200.0 Y7.4151
G1 X116.7894
G1 Y11.4706
G1 X104.4248
G1 Y9.2151
( Pocket2 )
S1000
G0 Z3.0
G0 X33.4293 Y13.9577
G0 Z1.0
G1 F50.0 Z-2.0
G1 F200.0 Y13.9576
G3 X33.9718 Y13.4152 I0.5425 J0.0001
G1 X33.9717
G1 X33.9718
G1 X36.9574
G3 X37.4999 Y13.9576 I-0.0001 J0.5425
G1 Y13.9577
G1 Y13.9576
G3 X36.9574 Y14.5001 I-0.5425 J-0.0001
G1 X33.9718
G1 X33.9717
G1 X33.9718
G3 X33.4293 Y13.9576 I0.0001 J-0.5425
G1 Y13.9577
G1 F50.0 Z-4.0
G1 F200.0 Y13.9576
G3 X33.9718 Y13.4152 I0.5425 J0.0001
G1 X33.9717
G1 X33.9718
G1 X36.9574
G3 X37.4999 Y13.9576 I-0.0001 J0.5425
G1 Y13.9577
G1 Y13.9576
G3 X36.9574 Y14.5001 I-0.5425 J-0.0001
G1 X33.9718
G1 X33.9717
G1 X33.9718
G3 X33.4293 Y13.9576 I0.0001 J-0.5425
G1 Y13.9577
G1 F50.0 Z-6.0
G1 F200.0 Y13.9576
G3 X33.9718 Y13.4152 I0.5425 J0.0001
G1 X33.9717
G1 X33.9718
G1 X36.9574
G3 X37.4999 Y13.9576 I-0.0001 J0.5425
G1 Y13.9577
G1 Y13.9576
G3 X36.9574 Y14.5001 I-0.5425 J-0.0001
G1 X33.9718
G1 X33.9717
G1 X33.9718
G3 X33.4293 Y13.9576 I0.0001 J-0.5425
G1 Y13.9577
G1 F50.0 Z-8.0
G1 F200.0 Y13.9576
G3 X33.9718 Y13.4152 I0.5425 J0.0001
G1 X33.9717
G1 X33.9718
G1 X36.9574
G3 X37.4999 Y13.9576 I-0.0001 J0.5425
G1 Y13.9577
G1 Y13.9576
G3 X36.9574 Y14.5001 I-0.5425 J-0.0001
G1 X33.9718
G1 X33.9717
G1 X33.9718
G3 X33.4293 Y13.9576 I0.0001 J-0.5425
G1 Y13.9577
G1 F50.0 Z-10.0
G1 F200.0 Y13.9576
G3 X33.9718 Y13.4152 I0.5425 J0.0001
G1 X33.9717
G1 X33.9718
G1 X36.9574
G3 X37.4999 Y13.9576 I-0.0001 J0.5425
G1 Y13.9577
G1 Y13.9576
G3 X36.9574 Y14.5001 I-0.5425 J-0.0001
G1 X33.9718
G1 X33.9717
G1 X33.9718
G3 X33.4293 Y13.9576 I0.0001 J-0.5425
G1 Y13.9577
G1 F50.0 Z-12.0
G1 F200.0 Y13.9576
G3 X33.9718 Y13.4152 I0.5425 J0.0001
G1 X33.9717
G1 X33.9718
G1 X36.9574
G3 X37.4999 Y13.9576 I-0.0001 J0.5425
G1 Y13.9577
G1 Y13.9576
G3 X36.9574 Y14.5001 I-0.5425 J-0.0001
G1 X33.9718
G1 X33.9717
G1 X33.9718
G3 X33.4293 Y13.9576 I0.0001 J-0.5425
G1 Y13.9577
G0 Z3.0
G0 X82.5829
G0 Z1.0
G1 F50.0 Z-2.0
G1 F200.0 Y13.9576
G3 X83.1254 Y13.4152 I0.5425 J0.0001
G1 X83.1253
G1 X83.1254
G1 X86.111
G3 X86.6534 Y13.9576 I-0.0001 J0.5425
G1 Y13.9577
G1 Y13.9576
G3 X86.111 Y14.5001 I-0.5425 J-0.0001
G1 X83.1254
G1 X83.1253
G1 X83.1254
G3 X82.5829 Y13.9576 I0.0001 J-0.5425
G1 Y13.9577
G1 F50.0 Z-4.0
G1 F200.0 Y13.9576
G3 X83.1254 Y13.4152 I0.5425 J0.0001
G1 X83.1253
G1 X83.1254
G1 X86.111
G3 X86.6534 Y13.9576 I-0.0001 J0.5425
G1 Y13.9577
G1 Y13.9576
G3 X86.111 Y14.5001 I-0.5425 J-0.0001
G1 X83.1254
G1 X83.1253
G1 X83.1254
G3 X82.5829 Y13.9576 I0.0001 J-0.5425
G1 Y13.9577
G1 F50.0 Z-6.0
G1 F200.0 Y13.9576
G3 X83.1254 Y13.4152 I0.5425 J0.0001
G1 X83.1253
G1 X83.1254
G1 X86.111
G3 X86.6534 Y13.9576 I-0.0001 J0.5425
G1 Y13.9577
G1 Y13.9576
G3 X86.111 Y14.5001 I-0.5425 J-0.0001
G1 X83.1254
G1 X83.1253
G1 X83.1254
G3 X82.5829 Y13.9576 I0.0001 J-0.5425
G1 Y13.9577
G1 F50.0 Z-8.0
G1 F200.0 Y13.9576
G3 X83.1254 Y13.4152 I0.5425 J0.0001
G1 X83.1253
G1 X83.1254
G1 X86.111
G3 X86.6534 Y13.9576 I-0.0001 J0.5425
G1 Y13.9577
G1 Y13.9576
G3 X86.111 Y14.5001 I-0.5425 J-0.0001
G1 X83.1254
G1 X83.1253
G1 X83.1254
G3 X82.5829 Y13.9576 I0.0001 J-0.5425
G1 Y13.9577
G1 F50.0 Z-10.0
G1 F200.0 Y13.9576
G3 X83.1254 Y13.4152 I0.5425 J0.0001
G1 X83.1253
G1 X83.1254
G1 X86.111
G3 X86.6534 Y13.9576 I-0.0001 J0.5425
G1 Y13.9577
G1 Y13.9576
G3 X86.111 Y14.5001 I-0.5425 J-0.0001
G1 X83.1254
G1 X83.1253
G1 X83.1254
G3 X82.5829 Y13.9576 I0.0001 J-0.5425
G1 Y13.9577
G1 F50.0 Z-12.0
G1 F200.0 Y13.9576
G3 X83.1254 Y13.4152 I0.5425 J0.0001
G1 X83.1253
G1 X83.1254
G1 X86.111
G3 X86.6534 Y13.9576 I-0.0001 J0.5425
G1 Y13.9577
G1 Y13.9576
G3 X86.111 Y14.5001 I-0.5425 J-0.0001
G1 X83.1254
G1 X83.1253
G1 X83.1254
G3 X82.5829 Y13.9576 I0.0001 J-0.5425
G1 Y13.9577
G0 Z3.0
G0 X131.8541 Y13.9578
G0 Z1.0
G1 F50.0 Z-2.0
G1 F200.0 Y13.9577
G3 X132.3965 Y13.4152 I0.5425 J0.0
G1 X132.3966
G1 X132.3964
G1 X132.3965
G1 X135.3822
G1 X135.3823
G1 X135.3821
G1 X135.3822
G3 X135.9249 Y13.9577 I-0.0001 J0.5428
G3 X135.3823 Y14.5001 I-0.5425 J-0.0002
G1 X132.3964
G3 X131.8541 Y13.9578 I0.0 J-0.5422
G1 F50.0 Z-4.0
G1 F200.0 Y13.9577
G3 X132.3965 Y13.4152 I0.5425 J0.0
G1 X132.3966
G1 X132.3964
G1 X132.3965
G1 X135.3822
G1 X135.3823
G1 X135.3821
G1 X135.3822
G3 X135.9249 Y13.9577 I-0.0001 J0.5428
G3 X135.3823 Y14.5001 I-0.5425 J-0.0002
G1 X132.3964
G3 X131.8541 Y13.9578 I0.0 J-0.5422
G1 F50.0 Z-6.0
G1 F200.0 Y13.9577
G3 X132.3965 Y13.4152 I0.5425 J0.0
G1 X132.3966
G1 X132.3964
G1 X132.3965
G1 X135.3822
G1 X135.3823
G1 X135.3821
G1 X135.3822
G3 X135.9249 Y13.9577 I-0.0001 J0.5428
G3 X135.3823 Y14.5001 I-0.5425 J-0.0002
G1 X132.3964
G3 X131.8541 Y13.9578 I0.0 J-0.5422
G1 F50.0 Z-8.0
G1 F200.0 Y13.9577
G3 X132.3965 Y13.4152 I0.5425 J0.0
G1 X132.3966
G1 X132.3964
G1 X132.3965
G1 X135.3822
G1 X135.3823
G1 X135.3821
G1 X135.3822
G3 X135.9249 Y13.9577 I-0.0001 J0.5428
G3 X135.3823 Y14.5001 I-0.5425 J-0.0002
G1 X132.3964
G3 X131.8541 Y13.9578 I0.0 J-0.5422
G1 F50.0 Z-10.0
G1 F200.0 Y13.9577
G3 X132.3965 Y13.4152 I0.5425 J0.0
G1 X132.3966
G1 X132.3964
G1 X132.3965
G1 X135.3822
G1 X135.3823
G1 X135.3821
G1 X135.3822
G3 X135.9249 Y13.9577 I-0.0001 J0.5428
G3 X135.3823 Y14.5001 I-0.5425 J-0.0002
G1 X132.3964
G3 X131.8541 Y13.9578 I0.0 J-0.5422
G1 F50.0 Z-12.0
G1 F200.0 Y13.9577
G3 X132.3965 Y13.4152 I0.5425 J0.0
G1 X132.3966
G1 X132.3964
G1 X132.3965
G1 X135.3822
G1 X135.3823
G1 X135.3821
G1 X135.3822
G3 X135.9249 Y13.9577 I-0.0001 J0.5428
G3 X135.3823 Y14.5001 I-0.5425 J-0.0002
G1 X132.3964
G3 X131.8541 Y13.9578 I0.0 J-0.5422
( Engrave1 )
S1000
G0 Z3.0
G0 X0.5071 Y8.0
G0 Z1.7
G1 F50.0 Z-0.3
G1 F150.0 X44.5382
G0 Z3.0
G0 X49.6607
G0 Z1.7
G1 F50.0 Z-0.3
G1 F150.0 X93.6918
G0 Z3.0
G0 X98.9319
G0 Z1.7
G1 F50.0 Z-0.3
G1 F150.0 X142.9632
( Profile1 )
S1000
G0 Z3.0
G0 X46.4998 Y2.8223
G0 Z1.0
G1 F50.0 Z-2.0
G1 F200.0 Y2.8222
G2 X42.1776 Y-1.5 I-4.3221 J-0.0001
G1 X2.8222
G1 X2.8223
G1 X2.8222
G2 X-1.5 Y2.8222 I-0.0001 J4.3221
G1 Y2.8223
G1 Y2.8222
G1 Y16.1778
G2 X2.8222 Y20.5 I4.3221 J0.0001
G1 X2.8223
G1 X2.8222
G1 X42.1776
G2 X46.4998 Y16.1778 I0.0001 J-4.3221
G1 Y2.8222
G1 Y2.8223
G1 F50.0 Z-4.0
G1 F200.0 Y2.8222
G2 X42.1776 Y-1.5 I-4.3221 J-0.0001
G1 X2.8222
G1 X2.8223
G1 X2.8222
G2 X-1.5 Y2.8222 I-0.0001 J4.3221
G1 Y2.8223
G1 Y2.8222
G1 Y16.1778
G2 X2.8222 Y20.5 I4.3221 J0.0001
G1 X2.8223
G1 X2.8222
G1 X42.1776
G2 X46.4998 Y16.1778 I0.0001 J-4.3221
G1 Y2.8222
G1 Y2.8223
G1 F50.0 Z-6.0
G1 F200.0 Y2.8222
G2 X42.1776 Y-1.5 I-4.3221 J-0.0001
G1 X2.8222
G1 X2.8223
G1 X2.8222
G2 X-1.5 Y2.8222 I-0.0001 J4.3221
G1 Y2.8223
G1 Y2.8222
G1 Y16.1778
G2 X2.8222 Y20.5 I4.3221 J0.0001
G1 X2.8223
G1 X2.8222
G1 X42.1776
G2 X46.4998 Y16.1778 I0.0001 J-4.3221
G1 Y2.8222
G1 Y2.8223
G1 F50.0 Z-8.0
G1 F200.0 Y2.8222
G2 X42.1776 Y-1.5 I-4.3221 J-0.0001
G1 X2.8222
G1 X2.8223
G1 X2.8222
G2 X-1.5 Y2.8222 I-0.0001 J4.3221
G1 Y2.8223
G1 Y2.8222
G1 Y16.1778
G2 X2.8222 Y20.5 I4.3221 J0.0001
G1 X2.8223
G1 X2.8222
G1 X42.1776
G2 X46.4998 Y16.1778 I0.0001 J-4.3221
G1 Y2.8222
G1 Y2.8223
G1 F50.0 Z-10.0
G1 F200.0 Y2.8222
G2 X42.1776 Y-1.5 I-4.3221 J-0.0001
G1 X2.8222
G1 X2.8223
G1 X2.8222
G2 X-1.5 Y2.8222 I-0.0001 J4.3221
G1 Y2.8223
G1 Y2.8222
G1 Y16.1778
G2 X2.8222 Y20.5 I4.3221 J0.0001
G1 X2.8223
G1 X2.8222
G1 X42.1776
G2 X46.4998 Y16.1778 I0.0001 J-4.3221
G1 Y2.8222
G1 Y2.8223
G1 F50.0 Z-12.0
G1 F200.0 Y2.8222
G2 X42.1776 Y-1.5 I-4.3221 J-0.0001
G1 X2.8222
G1 X2.8223
G1 X2.8222
G2 X-1.5 Y2.8222 I-0.0001 J4.3221
G1 Y2.8223
G1 Y2.8222
G1 Y16.1778
G2 X2.8222 Y20.5 I4.3221 J0.0001
G1 X2.8223
G1 X2.8222
G1 X42.1776
G2 X46.4998 Y16.1778 I0.0001 J-4.3221
G1 Y2.8222
G1 Y2.8223
( Profile2 )
S1000
G0 Z3.0
G0 X95.6534
G0 Z1.0
G1 F50.0 Z-2.0
G1 F200.0 Y2.8222
G2 X91.3312 Y-1.5 I-4.3221 J-0.0001
G1 X51.9758
G1 X51.9759
G1 X51.9758
G2 X47.6536 Y2.8222 I-0.0001 J4.3221
G1 Y2.8223
G1 Y2.8222
G1 Y16.1778
G2 X51.9758 Y20.5 I4.3221 J0.0001
G1 X51.9759
G1 X51.9758
G1 X91.3312
G2 X95.6534 Y16.1778 I0.0001 J-4.3221
G1 Y2.8222
G1 Y2.8223
G1 F50.0 Z-4.0
G1 F200.0 Y2.8222
G2 X91.3312 Y-1.5 I-4.3221 J-0.0001
G1 X51.9758
G1 X51.9759
G1 X51.9758
G2 X47.6536 Y2.8222 I-0.0001 J4.3221
G1 Y2.8223
G1 Y2.8222
G1 Y16.1778
G2 X51.9758 Y20.5 I4.3221 J0.0001
G1 X51.9759
G1 X51.9758
G1 X91.3312
G2 X95.6534 Y16.1778 I0.0001 J-4.3221
G1 Y2.8222
G1 Y2.8223
G1 F50.0 Z-6.0
G1 F200.0 Y2.8222
G2 X91.3312 Y-1.5 I-4.3221 J-0.0001
G1 X51.9758
G1 X51.9759
G1 X51.9758
G2 X47.6536 Y2.8222 I-0.0001 J4.3221
G1 Y2.8223
G1 Y2.8222
G1 Y16.1778
G2 X51.9758 Y20.5 I4.3221 J0.0001
G1 X51.9759
G1 X51.9758
G1 X91.3312
G2 X95.6534 Y16.1778 I0.0001 J-4.3221
G1 Y2.8222
G1 Y2.8223
G1 F50.0 Z-8.0
G1 F200.0 Y2.8222
G2 X91.3312 Y-1.5 I-4.3221 J-0.0001
G1 X51.9758
G1 X51.9759
G1 X51.9758
G2 X47.6536 Y2.8222 I-0.0001 J4.3221
G1 Y2.8223
G1 Y2.8222
G1 Y16.1778
G2 X51.9758 Y20.5 I4.3221 J0.0001
G1 X51.9759
G1 X51.9758
G1 X91.3312
G2 X95.6534 Y16.1778 I0.0001 J-4.3221
G1 Y2.8222
G1 Y2.8223
G1 F50.0 Z-10.0
G1 F200.0 Y2.8222
G2 X91.3312 Y-1.5 I-4.3221 J-0.0001
G1 X51.9758
G1 X51.9759
G1 X51.9758
G2 X47.6536 Y2.8222 I-0.0001 J4.3221
G1 Y2.8223
G1 Y2.8222
G1 Y16.1778
G2 X51.9758 Y20.5 I4.3221 J0.0001
G1 X51.9759
G1 X51.9758
G1 X91.3312
G2 X95.6534 Y16.1778 I0.0001 J-4.3221
G1 Y2.8222
G1 Y2.8223
G1 F50.0 Z-12.0
G1 F200.0 Y2.8222
G2 X91.3312 Y-1.5 I-4.3221 J-0.0001
G1 X51.9758
G1 X51.9759
G1 X51.9758
G2 X47.6536 Y2.8222 I-0.0001 J4.3221
G1 Y2.8223
G1 Y2.8222
G1 Y16.1778
G2 X51.9758 Y20.5 I4.3221 J0.0001
G1 X51.9759
G1 X51.9758
G1 X91.3312
G2 X95.6534 Y16.1778 I0.0001 J-4.3221
G1 Y2.8222
G1 Y2.8223
( Profile3 )
S1000
G0 Z3.0
G0 X144.9248
G0 Z1.0
G1 F50.0 Z-2.0
G2 F200.0 X140.6026 Y-1.5 I-4.322 J-0.0003
G1 X140.6025
G1 X140.6026
G1 X101.2471
G1 X101.247
G1 X101.2471
G2 X96.9248 Y2.8222 I-0.0001 J4.3221
G1 Y2.8223
G1 Y2.8222
G1 Y16.1778
G2 X101.2471 Y20.5 I4.3221 J0.0001
G1 X101.247
G1 X101.2471
G1 X140.6026
G1 X140.6028
G2 X144.9248 Y16.178 I-0.0005 J-4.3225
G1 Y16.1778
G1 Y2.8223
G1 Y2.8222
G1 Y2.8223
G1 F50.0 Z-4.0
G2 F200.0 X140.6026 Y-1.5 I-4.322 J-0.0003
G1 X140.6025
G1 X140.6026
G1 X101.2471
G1 X101.247
G1 X101.2471
G2 X96.9248 Y2.8222 I-0.0001 J4.3221
G1 Y2.8223
G1 Y2.8222
G1 Y16.1778
G2 X101.2471 Y20.5 I4.3221 J0.0001
G1 X101.247
G1 X101.2471
G1 X140.6026
G1 X140.6028
G2 X144.9248 Y16.178 I-0.0005 J-4.3225
G1 Y16.1778
G1 Y2.8223
G1 Y2.8222
G1 Y2.8223
G1 F50.0 Z-6.0
G2 F200.0 X140.6026 Y-1.5 I-4.322 J-0.0003
G1 X140.6025
G1 X140.6026
G1 X101.2471
G1 X101.247
G1 X101.2471
G2 X96.9248 Y2.8222 I-0.0001 J4.3221
G1 Y2.8223
G1 Y2.8222
G1 Y16.1778
G2 X101.2471 Y20.5 I4.3221 J0.0001
G1 X101.247
G1 X101.2471
G1 X140.6026
G1 X140.6028
G2 X144.9248 Y16.178 I-0.0005 J-4.3225
G1 Y16.1778
G1 Y2.8223
G1 Y2.8222
G1 Y2.8223
G1 F50.0 Z-8.0
G2 F200.0 X140.6026 Y-1.5 I-4.322 J-0.0003
G1 X140.6025
G1 X140.6026
G1 X101.2471
G1 X101.247
G1 X101.2471
G2 X96.9248 Y2.8222 I-0.0001 J4.3221
G1 Y2.8223
G1 Y2.8222
G1 Y16.1778
G2 X101.2471 Y20.5 I4.3221 J0.0001
G1 X101.247
G1 X101.2471
G1 X140.6026
G1 X140.6028
G2 X144.9248 Y16.178 I-0.0005 J-4.3225
G1 Y16.1778
G1 Y2.8223
G1 Y2.8222
G1 Y2.8223
G1 F50.0 Z-10.0
G2 F200.0 X140.6026 Y-1.5 I-4.322 J-0.0003
G1 X140.6025
G1 X140.6026
G1 X101.2471
G1 X101.247
G1 X101.2471
G2 X96.9248 Y2.8222 I-0.0001 J4.3221
G1 Y2.8223
G1 Y2.8222
G1 Y16.1778
G2 X101.2471 Y20.5 I4.3221 J0.0001
G1 X101.247
G1 X101.2471
G1 X140.6026
G1 X140.6028
G2 X144.9248 Y16.178 I-0.0005 J-4.3225
G1 Y16.1778
G1 Y2.8223
G1 Y2.8222
G1 Y2.8223
G1 F50.0 Z-12.0
G2 F200.0 X140.6026 Y-1.5 I-4.322 J-0.0003
G1 X140.6025
G1 X140.6026
G1 X101.2471
G1 X101.247
G1 X101.2471
G2 X96.9248 Y2.8222 I-0.0001 J4.3221
G1 Y2.8223
G1 Y2.8222
G1 Y16.1778
G2 X101.2471 Y20.5 I4.3221 J0.0001
G1 X101.247
G1 X101.2471
G1 X140.6026
G1 X140.6028
G2 X144.9248 Y16.178 I-0.0005 J-4.3225
G1 Y16.1778
G1 Y2.8223
G1 Y2.8222
G1 Y2.8223
G0 Z3.0
M5
M30
